cmd/conneroh/_static/dist/svg/file-box.svg

<svg height="18" viewBox="0 0 18 18" width="18" xmlns="http://www.w3.org/2000/svg"><g fill="none" stroke="#fff" stroke-linecap="round" stroke-linejoin="round" stroke-width="2" transform="scale(.75)"><path d="m14.5 22h3.5c1.104167 0 2-.895833 2-2v-13l-5-5h-9c-1.104167 0-2 .895833-2 2v4"/><path d="m14 2v4c0 1.104167.895833 2 2 2h4m-17 5.098958c-.625.364584-1.010417 1.036459-1 1.760417v3.239583c-.026042.723959.348958 1.40625.96875 1.78125l3.03125 1.817709c.625.375 1.401042.380208 2.03125.010416l2.96875-1.807291c.625-.364584 1.010417-1.036459 1-1.760417v-3.239583c.026042-.723959-.348958-1.40625-.96875-1.78125l-3.03125-1.817709c-.625-.375-1.401042-.380208-2.03125-.010416zm4 3.901042v5"/><path d="m11.697917 14.197917-4.697917 2.802083-4.697917-2.802083"/></g></svg>

<svg xmlns="http://www.w3.org/2000/svg" width="24" height="24" fill="none" stroke="white" stroke-linecap="round" stroke-linejoin="round" stroke-width="2">
    <path d="M14.5 22H18a2 2 0 0 0 2-2V7l-5-5H6a2 2 0 0 0-2 2v4"/>
    <path d="M14 2v4a2 2 0 0 0 2 2h4M3 13.1a2 2 0 0 0-1 1.76v3.24a2 2 0 0 0 .97 1.78L6 21.7a2 2 0 0 0 2.03.01L11 19.9a2 2 0 0 0 1-1.76V14.9a2 2 0 0 0-.97-1.78L8 11.3a2 2 0 0 0-2.03-.01ZM7 17v5"/>
    <path d="M11.7 14.2 7 17l-4.7-2.8"/>
</svg>
